src/assets/list.svg

<?xml version="1.0" encoding="UTF-8" standalone="no"?><!DOCTYPE svg PUBLIC "-//W3C//DTD SVG 1.1//EN" "http://www.w3.org/Graphics/SVG/1.1/DTD/svg11.dtd"><svg width="100%" height="100%" viewBox="0 0 24 24" version="1.1" xmlns="http://www.w3.org/2000/svg" xmlns:xlink="http://www.w3.org/1999/xlink" xml:space="preserve" xmlns:serif="http://www.serif.com/" style="fill-rule:evenodd;clip-rule:evenodd;stroke-linejoin:round;stroke-miterlimit:1.41421;"><path d="M3,13l2,0l0,-2l-2,0l0,2Zm0,4l2,0l0,-2l-2,0l0,2Zm0,-8l2,0l0,-2l-2,0l0,2Zm4,4l14,0l0,-2l-14,0l0,2Zm0,4l14,0l0,-2l-14,0l0,2Zm0,-10l0,2l14,0l0,-2l-14,0Zm-4,6l2,0l0,-2l-2,0l0,2Zm0,4l2,0l0,-2l-2,0l0,2Zm0,-8l2,0l0,-2l-2,0l0,2Zm4,4l14,0l0,-2l-14,0l0,2Zm0,4l14,0l0,-2l-14,0l0,2Zm0,-10l0,2l14,0l0,-2l-14,0Z" style="fill:#373a3c;fill-rule:nonzero;"/></svg>

<svg viewBox="0 0 24 24" xmlns="http://www.w3.org/2000/svg" fill-rule="evenodd" clip-rule="evenodd" stroke-linejoin="round" stroke-miterlimit="1.414"><path d="M3 13h2v-2H3v2zm0 4h2v-2H3v2zm0-8h2V7H3v2zm4 4h14v-2H7v2zm0 4h14v-2H7v2zM7 7v2h14V7H7zm-4 6h2v-2H3v2zm0 4h2v-2H3v2zm0-8h2V7H3v2zm4 4h14v-2H7v2zm0 4h14v-2H7v2zM7 7v2h14V7H7z" fill="#373a3c" fill-rule="nonzero"/></svg>
